www/assets/icons/hotel.svg

<svg xmlns="http://www.w3.org/2000/svg" width="24" height="24" viewBox="0 0 24 24" fill='currentColor'><path d="M7 12.5c1.66 0 3-1.34 3-3s-1.34-3-3-3-3 1.34-3 3 1.34 3 3 3m12-6h-8v7H3v-9H1v15h2v-3h18v3h2v-9c0-2.21-1.79-4-4-4"/></svg>

<svg width="24" height="24" viewBox="0 0 24 24" xmlns="http://www.w3.org/2000/svg" fill='currentColor'><path d="M7 12.5C8.66 12.5 10 11.16 10 9.5C10 7.84 8.66 6.5 7 6.5C5.34 6.5 4 7.84 4 9.5C4 11.16 5.34 12.5 7 12.5ZM19 6.5H11V13.5H3V4.5H1V19.5H3V16.5H21V19.5H23V10.5C23 8.29 21.21 6.5 19 6.5Z"/></svg>
